icons/currency-pound-outline.svg

<svg xmlns="http://www.w3.org/2000/svg" width="24" height="24" viewBox="0 0 24 24">
  <path d="M12,1 C18.0751322,1 23,5.92486775 23,12 C23,18.0751322 18.0751322,23 12,23 C5.92486775,23 1,18.0751322 1,12 C1,5.92486775 5.92486775,1 12,1 Z M12,3 C7.02943725,3 3,7.02943725 3,12 C3,16.9705627 7.02943725,21 12,21 C16.9705627,21 21,16.9705627 21,12 C21,7.02943725 16.9705627,3 12,3 Z M13,6 C14.6568767,6 16,7.34313721 16,9 C16,9.55228475 15.5522847,10 15,10 C14.4871642,10 14.0644928,9.61395981 14.0067277,9.11662113 L14,9 C14,8.44770207 13.5523026,8 13,8 C12.4871476,8 12.0644905,8.38602882 12.0067275,8.88337644 L12,9 L12,11 L13,11 C13.5522847,11 14,11.4477153 14,12 C14,12.5128358 13.6139598,12.9355072 13.1166211,12.9932723 L13,13 L12,13 L12,14 C12,14.2958723 11.9571711,14.5817391 11.8773746,14.8517393 L11.829,15 L15,15 C15.5128358,15 15.9355072,15.3860402 15.9932723,15.8833789 L16,16 C16,16.5128358 15.6139598,16.9355072 15.1166211,16.9932723 L15,17 L9,17 L8.86682521,16.9930296 C7.71105826,16.8690393 7.71105826,15.1309607 8.86682521,15.0069704 L9.11662676,14.9932727 C9.5757277,14.9399544 9.9399544,14.5757277 9.9932727,14.1166268 L10,14 L10,13 L9,13 C8.44771525,13 8,12.5522847 8,12 C8,11.4871642 8.38604019,11.0644928 8.88337887,11.0067277 L9,11 L10,11 L10,9 C10,7.34313721 11.3431233,6 13,6 Z"/>
</svg>

<svg xmlns="http://www.w3.org/2000/svg" viewBox="0 0 24 24">
  <path d="M12 1a11 11 0 1 1 0 22 11 11 0 0 1 0-22zm0 2a9 9 0 1 0 0 18 9 9 0 0 0 0-18zm1 3a3 3 0 0 1 3 3 1 1 0 0 1-2 .12V9a1 1 0 0 0-2-.12V11h1a1 1 0 0 1 .12 2H12v1a3 3 0 0 1-.12.85l-.05.15H15a1 1 0 0 1 1 .88V16a1 1 0 0 1-.88 1H8.87c-1.16-.13-1.16-1.87 0-2h.25a1 1 0 0 0 .87-.88L10 14v-1H9a1 1 0 0 1-.12-2H10V9a3 3 0 0 1 3-3z"/>
</svg>
